X: 13577
T: Flying Home To Shelley
R: reel
M: 4/4
K: Gmajor
"G" DGdG cGBG|"Am7" DGcG BGAG|"Bm7" DGAG BGAG|"D" DEGd "C6"cBAG|
"G" DGdG cGBG|"Am7" DGcG BGAG|"Bm7" DGAG "Am"BGAG|1 "D" DEFD "G"G2z2:|2 "D" DEFD "G"GABc||
|:"G" d3B AGAB|"Am7" c3B AGE (d|"C6" Je2)ed "Bm7"BA G2|"Am7" ABcA "D"BAGB|
"G" d2dB AGAB|"Am7" cGBG AGE (d|"C6" Je2)ed "Am"BA G2|1 "D" ABAF "G"GABc:|2 "Am" ABAF "G"G2zE||

